!!!SOCIAL_FUNCTION:	miscellaneous songs
!!!PDT:	1922
!!!OTL: No_105_Smoking_Song_(c).krn
!!!REG: Southwest
!!!LANG: Non-Tone
!!!LING_GROUP: Uto-Aztecan
**kern	**kern
*staff2	*staff1
=1-	=1-
*clefF4	*clefF4
*k[f#c#g#d#]	*k[f#c#g#d#]
*M2/4	*M2/4
16GG#/LL	12B\L
16GG#/	.
.	12F#\
16GG#/	.
.	12B\J
16GG#/JJ	.
16GG#/LL	4B\
16GG#/	.
16GG#/	.
16GG#/JJ	.
=2	=2
2r	12B\L
.	12F#\
.	12B\J
.	4B;\
=3	=3
2r	4B\
.	4c#\
=4	=4
2r	8.c#\L
.	16G#\Jk
.	16.G#\LL
.	32F#\JK
.	8E\J
=5||	=5||
*M3/4	*M3/4
2.r	8F#\L
.	8F#\J
.	16.G#\LL
.	32F#\JK
.	8E\J
.	16.G#\LL
.	32F#\JK
.	8E\J
=6||	=6||
*M2/4	*M2/4
2r	12F#\L
.	12F#\
.	12F#\J
.	12E\L
.	12F#\
.	12E\J
=7	=7
2r	16E\LK
.	8.E\J
.	4E\
=8	=8
2r	16F#\LK
.	8E\
.	16E\Jk
.	4E\
==	==
*-	*-
